X: 23807
T: Little Judique
R: jig
M: 6/8
K: Gmajor
|:G3 BAB|GB/c/d gba|gdB ecA|dBG AFD|
G3 BAB|GB/c/d gba|gdB ecA|AGF G2A:|
|:B2G Bcd|e2c efg|d2B EFG|DBA ABc|
[1B2G Bcd|e2c efg|A2G EFG|AGF G2A:|
[2G3 BAB|GB/c/d gba|gdB ecA|DBA G2A||

